X: 1181
T: MAY DAY
B: Oliver Ditson "The Boston Collection of Instrumental Music" 1910 p.118 #1
F: http://conquest.imslp.info/files/imglnks/usimg/8/8f/IMSLP175643-PMLP309456-bostoncollection00bost_bw.pdf
%: 2012 John Chambers <jc:trillian.mit.edu>
M: 2/4
L: 1/16
K: G
d2 |\
d2gf g2d2 | B2d^c d2B2 | A2e2 d2c2 | BABc B2d2 |\
d2gf g2d2 | B2d^c d2B2 | A2e2 d2F2 | G6 H|]
d2 |\
A2e2 d2c2 | BABc B2B2 | A2e2 d2c2 | BABc B2d2 |\
d2gf g2d2 | B2d^c d2B2 | A2e2 d2F2 | "^da Capo"G6 ]
d2 |\
d4 e2f2 | a2g2 d2B2 | A2c2 F2A2 | G2B2 D2d2 |\
d4 e2f2 | a2g2 d2B2 | A2e2 d2F2 | "^da Capo"G6 |]
%%begintext align
First four right and left.
Balance four.
Ladies' chain.
Promenade four.
%%endtext

%%sep 1 1 500
%%sep 1 1 500
